!!!OTL: Die Brombeerpflueckerin Es wollt ein Maderl fruah aufstehn,
!!!ARE: Europa, Mitteleuropa, Oesterreich, Traismauer
!!!YOR: 7, S. 75
!!    1912 aufgezeichnet
!!!SCT: Q0147C
!!!YEM: Copyright 1995, estate of Helmut Schaffrath.
**kern
*ICvox
*Ivox
*M6/8
*k[f#]
*G:
{8d
=1
4g
8g
4b
8g
=2
8a
8a
8d
4r}
{16d
16d
=3
4a
8b
4cc
8f#
=4
4g
4.r}
{16g
16g
=5
4b
8g
4b
8g
=6
8a
8dd
8dd
4dd}
{16a
16a
=7
4a
16dd
16dd
4cc
8f#
=8
4g
8b
4b}
{16g
16g
=9
4a
8b
4cc
8f#
=10
4g
4.r}
{16g
16g
=11
4b
8g
4b
8g
=12
8a
8dd
8dd
4dd}
{16a
16a
=13
4a
16dd
16dd
4cc
8f#
=14
4g
8b
4b}
{16g
16g
=15
4a
8b
4cc
8f#
=16
4g
4.r}
==
!!!AGN: Ballade, Verfuehrung, Schwangerschaft; bei der Arbeit
!! Zweistimmig notiert, Unterstimme kodiert.
!!    Vierte Zeile refrainartig.
!!!ONB: ESAC (Essen Associative Code) Database: BALLADE
!!!AMT: compound duple
!!!AIN: vox
!!!EED: Helmut Schaffrath
!!!EEV: 1.0
*-
